static/icons-flat/pollen-grass.svg

<svg viewBox="0 0 128 128" fill="none" xmlns="http://www.w3.org/2000/svg">
<g id="pollen-grass" clip-path="url(#clip0_2045_48582)">
<g id="Grass">
<path id="Vector" d="M65.7915 90.9997C65.8183 87.8568 66.0059 67.9022 66.4347 63.1983C66.944 58.0936 69.3829 50.8374 70.857 45.332C72.3311 39.8265 68.6057 37 68.6057 37C68.6057 37 71.1971 39.8265 65.9708 52.1874C60.9589 63.9999 61.2185 88.8904 61.3526 90.9997H65.7915Z" fill="#22C55E"/>
<path id="Vector_2" d="M74.4651 69.0629C69.9624 77.205 69.3728 87.2878 69.3192 91.0003H73.8219C73.4467 86.8659 73.8838 74.8847 78.4669 68.3035C84.0953 60.2246 88 61.5535 88 61.5535C88 61.5535 80.0399 58.8747 74.4383 69.0629H74.4651Z" fill="#22C55E"/>
<path id="Vector_3" d="M64.9874 90.9987H69.418C69.8201 86.5479 70.3478 72.4574 73.698 65.0535C77.7182 56.1942 74.8504 46.9341 74.8504 46.9341C74.8504 46.9341 75.3513 56.0254 70.0178 65.7074C65.4615 73.9339 65.2554 87.2229 64.9874 90.9987Z" fill="#16A34A"/>
<path id="Vector_4" d="M57.8416 90.9977H63.2638C62.7278 88.5508 60.0024 71.6548 56.0893 65.4744C51.8547 58.8509 47.7189 55.7502 40 53.3877C40 53.3877 49.4342 56.5728 53.8564 70.8954C56.0073 77.5153 56.6717 84.2271 57.8416 90.9977Z" fill="#16A34A"/>
<path id="Vector_5" d="M58.922 90.9988C57.85 86.991 53.6421 73.7442 43.1359 70.0317C43.1359 70.0317 47.9786 74.9676 50.8196 80.4098C52.4633 83.8231 53.5878 87.3775 54.1698 90.9988H58.922Z" fill="#22C55E"/>
</g>
<g id="Pollen">
<path id="Pollen 7" d="M90 53C91.6569 53 93 51.6569 93 50C93 48.3431 91.6569 47 90 47C88.3431 47 87 48.3431 87 50C87 51.6569 88.3431 53 90 53Z" fill="#FACC15"><animateTransform attributeName="transform" type="translate" values="0 0;8 -4" dur="3s" begin="0s" repeatCount="indefinite" calcMode="spline" keySplines=".42 0 .58 1"/><animate attributeName="opacity" values="0;1;1;0" dur="3s" begin="0s" repeatCount="indefinite" keyTimes="0;0.2;0.8;1"/></path>
<path id="Pollen 6" d="M80 42C81.1046 42 82 41.1046 82 40C82 38.8954 81.1046 38 80 38C78.8954 38 78 38.8954 78 40C78 41.1046 78.8954 42 80 42Z" fill="#FACC15" opacity="0"><animateTransform attributeName="transform" type="translate" values="0 0;8 -4" dur="3s" begin="0.35s" repeatCount="indefinite" calcMode="spline" keySplines=".42 0 .58 1"/><animate attributeName="opacity" values="0;1;1;0" dur="3s" begin="0.35s" repeatCount="indefinite" keyTimes="0;0.2;0.8;1"/></path>
<path id="Pollen 5" d="M74 52C76.2091 52 78 50.2091 78 48C78 45.7909 76.2091 44 74 44C71.7909 44 70 45.7909 70 48C70 50.2091 71.7909 52 74 52Z" fill="#FACC15" opacity="0"><animateTransform attributeName="transform" type="translate" values="0 0;8 -4" dur="3s" begin="0.7s" repeatCount="indefinite" calcMode="spline" keySplines=".42 0 .58 1"/><animate attributeName="opacity" values="0;1;1;0" dur="3s" begin="0.7s" repeatCount="indefinite" keyTimes="0;0.2;0.8;1"/></path>
<path id="Pollen 4" d="M64 41C65.6569 41 67 39.6569 67 38C67 36.3431 65.6569 35 64 35C62.3431 35 61 36.3431 61 38C61 39.6569 62.3431 41 64 41Z" fill="#FACC15" opacity="0"><animateTransform attributeName="transform" type="translate" values="0 0;8 -4" dur="3s" begin="1.0499999999999998s" repeatCount="indefinite" calcMode="spline" keySplines=".42 0 .58 1"/><animate attributeName="opacity" values="0;1;1;0" dur="3s" begin="1.0499999999999998s" repeatCount="indefinite" keyTimes="0;0.2;0.8;1"/></path>
<path id="Pollen 3" d="M54 52C56.2091 52 58 50.2091 58 48C58 45.7909 56.2091 44 54 44C51.7909 44 50 45.7909 50 48C50 50.2091 51.7909 52 54 52Z" fill="#FACC15" opacity="0"><animateTransform attributeName="transform" type="translate" values="0 0;8 -4" dur="3s" begin="1.4s" repeatCount="indefinite" calcMode="spline" keySplines=".42 0 .58 1"/><animate attributeName="opacity" values="0;1;1;0" dur="3s" begin="1.4s" repeatCount="indefinite" keyTimes="0;0.2;0.8;1"/></path>
<path id="Pollen 2" d="M48 42C49.1046 42 50 41.1046 50 40C50 38.8954 49.1046 38 48 38C46.8954 38 46 38.8954 46 40C46 41.1046 46.8954 42 48 42Z" fill="#FACC15" opacity="0"><animateTransform attributeName="transform" type="translate" values="0 0;8 -4" dur="3s" begin="1.75s" repeatCount="indefinite" calcMode="spline" keySplines=".42 0 .58 1"/><animate attributeName="opacity" values="0;1;1;0" dur="3s" begin="1.75s" repeatCount="indefinite" keyTimes="0;0.2;0.8;1"/></path>
<path id="Pollen 1" d="M38 53C39.6569 53 41 51.6569 41 50C41 48.3431 39.6569 47 38 47C36.3431 47 35 48.3431 35 50C35 51.6569 36.3431 53 38 53Z" fill="#FACC15" opacity="0"><animateTransform attributeName="transform" type="translate" values="0 0;8 -4" dur="3s" begin="2.0999999999999996s" repeatCount="indefinite" calcMode="spline" keySplines=".42 0 .58 1"/><animate attributeName="opacity" values="0;1;1;0" dur="3s" begin="2.0999999999999996s" repeatCount="indefinite" keyTimes="0;0.2;0.8;1"/></path>
</g>
</g>
<defs>
<clipPath id="clip0_2045_48582">
<rect width="128" height="128" fill="white"/>
</clipPath>
</defs>
</svg>

<svg xmlns="http://www.w3.org/2000/svg" fill="none" viewBox="0 0 128 128"><g id="pollen-grass__pollen-grass" clip-path="url(#pollen-grass__clip0_3104_27078)"><g id="pollen-grass__Grass"><path id="pollen-grass__Vector" fill="#22c55e" d="M65.792 91c.026-3.143.214-23.098.643-27.802.509-5.104 2.948-12.36 4.422-17.866C72.331 39.827 68.606 37 68.606 37s2.591 2.827-2.635 15.187C60.959 64 61.218 88.89 61.353 91z"/><path id="pollen-grass__Vector_2" fill="#22c55e" d="M74.465 69.063C69.962 77.205 69.373 87.288 69.32 91h4.503c-.375-4.134.062-16.115 4.645-22.696 5.628-8.08 9.533-6.75 9.533-6.75s-7.96-2.68-13.562 7.509z"/><path id="pollen-grass__Vector_3" fill="#16a34a" d="M64.987 90.999h4.431c.402-4.451.93-18.542 4.28-25.945 4.02-8.86 1.152-18.12 1.152-18.12s.501 9.091-4.832 18.773c-4.556 8.227-4.763 21.516-5.03 25.292"/><path id="pollen-grass__Vector_4" fill="#16a34a" d="M57.842 90.998h5.422c-.536-2.447-3.262-19.343-7.175-25.524C51.855 58.851 47.72 55.75 40 53.388c0 0 9.434 3.185 13.856 17.507 2.151 6.62 2.816 13.332 3.986 20.103"/><path id="pollen-grass__Vector_5" fill="#22c55e" d="M58.922 90.999c-1.072-4.008-5.28-17.255-15.786-20.967 0 0 4.843 4.936 7.684 10.378 1.643 3.413 2.768 6.968 3.35 10.589z"/></g><g id="pollen-grass__Pollen"><path id="pollen-grass__Pollen 7" fill="#facc15" d="M90 53a3 3 0 1 0 0-6 3 3 0 0 0 0 6"><animateTransform attributeName="transform" begin="0s" calcMode="spline" dur="3s" keySplines=".42 0 .58 1" repeatCount="indefinite" type="translate" values="0 0;8 -4"/><animate attributeName="opacity" begin="0s" dur="3s" keyTimes="0;0.2;0.8;1" repeatCount="indefinite" values="0;1;1;0"/></path><path id="pollen-grass__Pollen 6" fill="#facc15" d="M80 42a2 2 0 1 0 0-4 2 2 0 0 0 0 4"><animateTransform attributeName="transform" begin="-2.65s" calcMode="spline" dur="3s" keySplines=".42 0 .58 1" repeatCount="indefinite" type="translate" values="0 0;8 -4"/><animate attributeName="opacity" begin="-2.65s" dur="3s" keyTimes="0;0.2;0.8;1" repeatCount="indefinite" values="0;1;1;0"/></path><path id="pollen-grass__Pollen 5" fill="#facc15" d="M74 52a4 4 0 1 0 0-8 4 4 0 0 0 0 8"><animateTransform attributeName="transform" begin="-2.3s" calcMode="spline" dur="3s" keySplines=".42 0 .58 1" repeatCount="indefinite" type="translate" values="0 0;8 -4"/><animate attributeName="opacity" begin="-2.3s" dur="3s" keyTimes="0;0.2;0.8;1" repeatCount="indefinite" values="0;1;1;0"/></path><path id="pollen-grass__Pollen 4" fill="#facc15" d="M64 41a3 3 0 1 0 0-6 3 3 0 0 0 0 6"><animateTransform attributeName="transform" begin="-1.9500000000000002s" calcMode="spline" dur="3s" keySplines=".42 0 .58 1" repeatCount="indefinite" type="translate" values="0 0;8 -4"/><animate attributeName="opacity" begin="-1.9500000000000002s" dur="3s" keyTimes="0;0.2;0.8;1" repeatCount="indefinite" values="0;1;1;0"/></path><path id="pollen-grass__Pollen 3" fill="#facc15" d="M54 52a4 4 0 1 0 0-8 4 4 0 0 0 0 8"><animateTransform attributeName="transform" begin="-1.6s" calcMode="spline" dur="3s" keySplines=".42 0 .58 1" repeatCount="indefinite" type="translate" values="0 0;8 -4"/><animate attributeName="opacity" begin="-1.6s" dur="3s" keyTimes="0;0.2;0.8;1" repeatCount="indefinite" values="0;1;1;0"/></path><path id="pollen-grass__Pollen 2" fill="#facc15" d="M48 42a2 2 0 1 0 0-4 2 2 0 0 0 0 4"><animateTransform attributeName="transform" begin="-1.25s" calcMode="spline" dur="3s" keySplines=".42 0 .58 1" repeatCount="indefinite" type="translate" values="0 0;8 -4"/><animate attributeName="opacity" begin="-1.25s" dur="3s" keyTimes="0;0.2;0.8;1" repeatCount="indefinite" values="0;1;1;0"/></path><path id="pollen-grass__Pollen 1" fill="#facc15" d="M38 53a3 3 0 1 0 0-6 3 3 0 0 0 0 6"><animateTransform attributeName="transform" begin="-0.9000000000000004s" calcMode="spline" dur="3s" keySplines=".42 0 .58 1" repeatCount="indefinite" type="translate" values="0 0;8 -4"/><animate attributeName="opacity" begin="-0.9000000000000004s" dur="3s" keyTimes="0;0.2;0.8;1" repeatCount="indefinite" values="0;1;1;0"/></path></g></g><defs><clipPath id="pollen-grass__clip0_3104_27078"><rect width="128" height="128" fill="#fff"/></clipPath></defs></svg>
